Sweet-Rainbow/icons/charles-proxy.svg

<?xml version="1.0" encoding="UTF-8" standalone="no"?>
<!-- Generator: Gravit.io -->

<svg
   xmlns:dc="http://purl.org/dc/elements/1.1/"
   xmlns:cc="http://creativecommons.org/ns#"
   xmlns:rdf="http://www.w3.org/1999/02/22-rdf-syntax-ns#"
   xmlns:svg="http://www.w3.org/2000/svg"
   xmlns="http://www.w3.org/2000/svg"
   xmlns:sodipodi="http://sodipodi.sourceforge.net/DTD/sodipodi-0.dtd"
   xmlns:inkscape="http://www.inkscape.org/namespaces/inkscape"
   style="isolation:isolate"
   viewBox="0 0 36 36"
   width="48"
   height="48"
   version="1.1"
   id="svg34"
   sodipodi:docname="charles-proxy.svg"
   inkscape:version="0.92.4 (5da689c313, 2019-01-14)">
  <metadata
     id="metadata40">
    <rdf:RDF>
      <cc:Work
         rdf:about="">
        <dc:format>image/svg+xml</dc:format>
        <dc:type
           rdf:resource="http://purl.org/dc/dcmitype/StillImage" />
        <dc:title></dc:title>
      </cc:Work>
    </rdf:RDF>
  </metadata>
  <defs
     id="defs38" />
  <sodipodi:namedview
     pagecolor="#ffffff"
     bordercolor="#666666"
     borderopacity="1"
     objecttolerance="10"
     gridtolerance="10"
     guidetolerance="10"
     inkscape:pageopacity="0"
     inkscape:pageshadow="2"
     inkscape:window-width="640"
     inkscape:window-height="480"
     id="namedview36"
     showgrid="false"
     inkscape:zoom="29.365243"
     inkscape:cx="25.325443"
     inkscape:cy="32"
     inkscape:current-layer="svg34"
     units="px" />
  <linearGradient
     id="_lgradient_3"
     x1="0"
     y1="0.5"
     x2="1"
     y2="0.5"
     gradientTransform="matrix(42,0,0,42.459,3,2.771)"
     gradientUnits="userSpaceOnUse">
    <stop
       offset="0%"
       stop-opacity="1"
       style="stop-color:rgb(34,216,143)"
       id="stop2" />
    <stop
       offset="51.73913043478261%"
       stop-opacity="1"
       style="stop-color:rgb(147,135,218)"
       id="stop4" />
    <stop
       offset="98.69565217391305%"
       stop-opacity="1"
       style="stop-color:rgb(255,89,230)"
       id="stop6" />
  </linearGradient>
  <linearGradient
     id="_lgradient_4"
     x1="2.5132732"
     y1="23.873182"
     x2="45.741638"
     y2="23.873182"
     gradientTransform="scale(0.99471591,1.0053122)"
     gradientUnits="userSpaceOnUse">
    <stop
       offset="0%"
       stop-opacity="1"
       style="stop-color:rgb(34,216,143)"
       id="stop9" />
    <stop
       offset="51.73913043478261%"
       stop-opacity="1"
       style="stop-color:rgb(147,135,218)"
       id="stop11" />
    <stop
       offset="98.69565217391305%"
       stop-opacity="1"
       style="stop-color:rgb(255,89,230)"
       id="stop13" />
  </linearGradient>
  <linearGradient
     id="_lgradient_5"
     x1="0.15503654"
     y1="0.21244895"
     x2="0.79775023"
     y2="0.85516262"
     gradientTransform="matrix(17.928,0,0,17.928,10.044,20.786)"
     gradientUnits="userSpaceOnUse">
    <stop
       offset="1.3043478260869565%"
       stop-opacity="1"
       style="stop-color:rgb(254,172,94)"
       id="stop18" />
    <stop
       offset="53.04347826086957%"
       stop-opacity="1"
       style="stop-color:rgb(199,121,208)"
       id="stop20" />
    <stop
       offset="99.56521739130434%"
       stop-opacity="1"
       style="stop-color:rgb(75,192,200)"
       id="stop22" />
  </linearGradient>
  <linearGradient
     id="_lgradient_6"
     x1="0"
     y1="0.5"
     x2="0.90748805"
     y2="0.92007786"
     gradientTransform="matrix(6.601,3.811,-3.811,6.601,17.613,24.913)"
     gradientUnits="userSpaceOnUse">
    <stop
       offset="0%"
       stop-opacity="1"
       style="stop-color:rgb(247,241,7)"
       id="stop27" />
    <stop
       offset="83.88839793817618%"
       stop-opacity="1"
       style="stop-color:rgb(255,187,36)"
       id="stop29" />
  </linearGradient>
  <g
     id="g850"
     transform="matrix(0.82838603,0,0,0.82838603,-1.8812346,-1.8812647)">
    <path
       id="path16"
       stroke-miterlimit="4"
       d="m 44.999,19.621 c -0.033,-2.267 -0.933,-4.398 -2.536,-6.001 -1.659,-1.659 -3.865,-2.561 -6.211,-2.536 -1.799,0.018 -3.504,0.578 -4.935,1.601 V 6.139 h -3.345 c -3.401,0 -6.761,-0.545 -9.987,-1.62 C 14.505,3.359 10.88,2.771 7.211,2.771 H 3.433 V 5.519 L 4.097,6.5 c 2.053,3.031 3.138,6.569 3.138,10.23 0,2.477 -0.672,4.908 -1.943,7.033 -2.664,4.453 -3.028,9.955 -0.974,14.72 l 2.91,6.746 h 24.096 l 2.91,-6.746 c 0.725,-1.682 1.147,-3.456 1.275,-5.242 l 7.128,-7.55 c 1.556,-1.648 2.395,-3.804 2.362,-6.07 z M 8.864,42.742 6.603,37.497 C 4.864,33.465 5.172,28.809 7.427,25.041 8.929,22.53 9.723,19.656 9.723,16.73 9.723,12.632 8.526,8.669 6.26,5.258 h 0.951 c 3.401,0 6.761,0.546 9.987,1.621 3.48,1.16 7.105,1.748 10.774,1.748 h 0.857 v 8.103 c 0,2.926 0.794,5.8 2.297,8.311 2.254,3.768 2.562,8.424 0.823,12.456 l -2.261,5.245 z M 35.383,29.75 C 35.081,27.659 34.371,25.62 33.26,23.763 31.989,21.638 31.317,19.207 31.317,16.73 v -0.67 l 0.569,-0.593 c 1.159,-1.205 2.718,-1.879 4.391,-1.895 1.671,-0.019 3.244,0.625 4.427,1.808 1.142,1.142 1.784,2.661 1.808,4.276 0.023,1.616 -0.575,3.153 -1.684,4.327 z"
       style="vector-effect:non-scaling-stroke;fill:url(#_lgradient_3);stroke:url(#_lgradient_4);stroke-width:1;stroke-linecap:butt;stroke-linejoin:miter;stroke-miterlimit:4"
       inkscape:connector-curvature="0" />
    <path
       id="path25"
       d="m 15.435,25.094 c -0.222,-0.169 -0.44,-0.331 -0.613,-0.431 -1.475,-0.852 -3.442,-0.207 -3.827,0.461 -0.386,0.668 0.039,2.694 1.514,3.545 0.173,0.1 0.423,0.208 0.68,0.316 -0.278,0.037 -0.546,0.076 -0.738,0.128 -1.646,0.44 -2.58,2.287 -2.381,3.032 0.2,0.745 1.933,1.877 3.578,1.436 v 0 c 0.193,-0.051 0.445,-0.152 0.704,-0.258 -0.17,0.223 -0.332,0.44 -0.432,0.613 -0.852,1.475 -0.206,3.442 0.461,3.828 0.668,0.385 2.694,-0.04 3.546,-1.515 0.099,-0.173 0.206,-0.421 0.314,-0.68 0.038,0.277 0.077,0.545 0.129,0.738 v 0 c 0.441,1.646 2.288,2.58 3.032,2.381 0.745,-0.2 1.877,-1.933 1.437,-3.578 -0.055,-0.203 -0.164,-0.473 -0.274,-0.743 0.253,0.22 0.461,0.375 0.628,0.471 1.475,0.852 3.442,0.207 3.828,-0.461 0.385,-0.668 -0.039,-2.694 -1.515,-3.546 -0.173,-0.099 -0.422,-0.207 -0.681,-0.315 0.278,-0.037 0.547,-0.076 0.74,-0.128 v 0 c 1.645,-0.441 2.58,-2.288 2.38,-3.032 -0.199,-0.745 -1.932,-1.877 -3.578,-1.437 -0.186,0.05 -0.427,0.146 -0.727,0.292 0.176,-0.233 0.35,-0.464 0.455,-0.646 0.852,-1.475 0.207,-3.442 -0.461,-3.828 -0.668,-0.385 -2.694,0.039 -3.545,1.515 -0.1,0.173 -0.208,0.422 -0.316,0.68 -0.037,-0.278 -0.076,-0.546 -0.127,-0.739 -0.441,-1.645 -2.288,-2.58 -3.033,-2.38 -0.745,0.199 -1.877,1.932 -1.436,3.578 v 0 c 0.051,0.192 0.152,0.444 0.258,0.703 z"
       style="fill:url(#_lgradient_5);fill-rule:evenodd"
       inkscape:connector-curvature="0" />
    <path
       id="path32"
       d="m 15.707,28.214 c 1.052,-1.822 3.385,-2.447 5.206,-1.395 1.822,1.052 2.447,3.384 1.395,5.206 -1.051,1.822 -3.384,2.447 -5.206,1.395 -1.822,-1.052 -2.447,-3.384 -1.395,-5.206 z"
       style="fill:url(#_lgradient_6)"
       inkscape:connector-curvature="0" />
  </g>
</svg>

<?xml version="1.0" encoding="UTF-8" standalone="no"?><!-- Generator: Gravit.io --><svg xmlns="http://www.w3.org/2000/svg" xmlns:xlink="http://www.w3.org/1999/xlink" style="isolation:isolate" viewBox="0 0 48 48" width="48pt" height="48pt"><linearGradient id="_lgradient_3" x1="0" y1="0.5" x2="1" y2="0.5" gradientTransform="matrix(42,0,0,42.459,3,2.771)" gradientUnits="userSpaceOnUse"><stop offset="0%" stop-opacity="1" style="stop-color:rgb(34,216,143)"/><stop offset="51.73913043478261%" stop-opacity="1" style="stop-color:rgb(147,135,218)"/><stop offset="98.69565217391305%" stop-opacity="1" style="stop-color:rgb(255,89,230)"/></linearGradient><linearGradient id="_lgradient_4" x1="0" y1="0.5" x2="1" y2="0.5"><stop offset="0%" stop-opacity="1" style="stop-color:rgb(34,216,143)"/><stop offset="51.73913043478261%" stop-opacity="1" style="stop-color:rgb(147,135,218)"/><stop offset="98.69565217391305%" stop-opacity="1" style="stop-color:rgb(255,89,230)"/></linearGradient><path d=" M 44.999 19.621 C 44.966 17.354 44.066 15.223 42.463 13.62 C 40.804 11.961 38.598 11.059 36.252 11.084 C 34.453 11.102 32.748 11.662 31.317 12.685 L 31.317 6.139 L 27.972 6.139 C 24.571 6.139 21.211 5.594 17.985 4.519 C 14.505 3.359 10.88 2.771 7.211 2.771 L 3.433 2.771 L 3.433 5.519 L 4.097 6.5 C 6.15 9.531 7.235 13.069 7.235 16.73 C 7.235 19.207 6.563 21.638 5.292 23.763 C 2.628 28.216 2.264 33.718 4.318 38.483 L 7.228 45.229 L 31.324 45.229 L 34.234 38.483 C 34.959 36.801 35.381 35.027 35.509 33.241 L 42.637 25.691 C 44.193 24.043 45.032 21.887 44.999 19.621 Z  M 8.864 42.742 L 6.603 37.497 C 4.864 33.465 5.172 28.809 7.427 25.041 C 8.929 22.53 9.723 19.656 9.723 16.73 C 9.723 12.632 8.526 8.669 6.26 5.258 L 7.211 5.258 C 10.612 5.258 13.972 5.804 17.198 6.879 C 20.678 8.039 24.303 8.627 27.972 8.627 L 28.829 8.627 L 28.829 16.73 C 28.829 19.656 29.623 22.53 31.126 25.041 C 33.38 28.809 33.688 33.465 31.949 37.497 L 29.688 42.742 L 8.864 42.742 Z  M 35.383 29.75 C 35.081 27.659 34.371 25.62 33.26 23.763 C 31.989 21.638 31.317 19.207 31.317 16.73 L 31.317 16.06 L 31.886 15.467 C 33.045 14.262 34.604 13.588 36.277 13.572 C 37.948 13.553 39.521 14.197 40.704 15.38 C 41.846 16.522 42.488 18.041 42.512 19.656 C 42.535 21.272 41.937 22.809 40.828 23.983 L 35.383 29.75 Z " fill="url(#_lgradient_3)" vector-effect="non-scaling-stroke" stroke-width="1" stroke="url(#_lgradient_4)" stroke-linejoin="miter" stroke-linecap="butt" stroke-miterlimit="4"/><linearGradient id="_lgradient_5" x1="0.15503653617450078" y1="0.21244894885155888" x2="0.7977502304728985" y2="0.8551626079381862" gradientTransform="matrix(17.928,0,0,17.928,10.044,20.786)" gradientUnits="userSpaceOnUse"><stop offset="1.3043478260869565%" stop-opacity="1" style="stop-color:rgb(254,172,94)"/><stop offset="53.04347826086957%" stop-opacity="1" style="stop-color:rgb(199,121,208)"/><stop offset="99.56521739130434%" stop-opacity="1" style="stop-color:rgb(75,192,200)"/></linearGradient><path d=" M 15.435 25.094 C 15.213 24.925 14.995 24.763 14.822 24.663 C 13.347 23.811 11.38 24.456 10.995 25.124 C 10.609 25.792 11.034 27.818 12.509 28.669 C 12.682 28.769 12.932 28.877 13.189 28.985 C 12.911 29.022 12.643 29.061 12.451 29.113 C 10.805 29.553 9.871 31.4 10.07 32.145 C 10.27 32.89 12.003 34.022 13.648 33.581 L 13.648 33.581 C 13.841 33.53 14.093 33.429 14.352 33.323 C 14.182 33.546 14.02 33.763 13.92 33.936 C 13.068 35.411 13.714 37.378 14.381 37.764 C 15.049 38.149 17.075 37.724 17.927 36.249 C 18.026 36.076 18.133 35.828 18.241 35.569 C 18.279 35.846 18.318 36.114 18.37 36.307 L 18.37 36.307 C 18.811 37.953 20.658 38.887 21.402 38.688 C 22.147 38.488 23.279 36.755 22.839 35.11 C 22.784 34.907 22.675 34.637 22.565 34.367 C 22.818 34.587 23.026 34.742 23.193 34.838 C 24.668 35.69 26.635 35.045 27.021 34.377 C 27.406 33.709 26.982 31.683 25.506 30.831 C 25.333 30.732 25.084 30.624 24.825 30.516 C 25.103 30.479 25.372 30.44 25.565 30.388 L 25.565 30.388 C 27.21 29.947 28.145 28.1 27.945 27.356 C 27.746 26.611 26.013 25.479 24.367 25.919 C 24.181 25.969 23.94 26.065 23.64 26.211 C 23.816 25.978 23.99 25.747 24.095 25.565 C 24.947 24.09 24.302 22.123 23.634 21.737 C 22.966 21.352 20.94 21.776 20.089 23.252 C 19.989 23.425 19.881 23.674 19.773 23.932 C 19.736 23.654 19.697 23.386 19.646 23.193 C 19.205 21.548 17.358 20.613 16.613 20.813 C 15.868 21.012 14.736 22.745 15.177 24.391 L 15.177 24.391 C 15.228 24.583 15.329 24.835 15.435 25.094 Z " fill-rule="evenodd" fill="url(#_lgradient_5)"/><linearGradient id="_lgradient_6" x1="0" y1="0.5" x2="0.9074880558539661" y2="0.9200778838291643" gradientTransform="matrix(6.601,3.811,-3.811,6.601,17.613,24.913)" gradientUnits="userSpaceOnUse"><stop offset="0%" stop-opacity="1" style="stop-color:rgb(247,241,7)"/><stop offset="83.88839793817618%" stop-opacity="1" style="stop-color:rgb(255,187,36)"/></linearGradient><path d=" M 15.707 28.214 C 16.759 26.392 19.092 25.767 20.913 26.819 C 22.735 27.871 23.36 30.203 22.308 32.025 C 21.257 33.847 18.924 34.472 17.102 33.42 C 15.28 32.368 14.655 30.036 15.707 28.214 Z " fill="url(#_lgradient_6)"/></svg>
